................релиз библиотеки D:\Programs\postprocessor\H33\H33dlg.dll = Wed Sep 15 15:17: 2004

Постпроцессор для системы 'H33'.
Исходные функции:
	G01 - линейная интерполяция
	G17 - плоскость для круговой интерполяции
	G40 - отмена коррекции

Преобразование управляющей программы в формат Н33 .........
	 Максимально допустимая подача при полном реверсе (мм/мин)= 100 
	 Максимально допустимая подача холостого хода (мм/мин)= 1200 
	 Ускорение (мм/(сек*сек))= 50 
	 Центростремительное ускорение (мм/(сек*сек))= 5 
	 Дистанция для торможения на окружности (мм)= 100.00 
	 Нумерация кадров = 0 

 Контрольные суммы:
 SUMX =      0.00 mm
 SUMY =      0.00 mm
 SUMZ =      0.00 mm

 Время выполнения программы -> 
       2130 (сек ) = 35.5 (мин) = 0 (ч) 35.5 (мин)

 Общее число ошибок допущенных при преобразовании:= 0 
................релиз библиотеки new_gpm.dll = Mon Sep 20 11:11: 2004
============================================================
Information listing created by :  Evgene
Date                           :  12.11.04 13:10:06
Current work part              :  D:\Programs\Test\test_indramat\pa1874m.prt
Node name                      :  aphonya
============================================================
%
N001S80M44
N002M03
N003G01X+032215Y-054387F0690
N004F0620
N005Z-004000F0630
N006Z-001000
N007X+000394Y+000121Z-000150F0620
N008F0619
N009X-000480Y+001560F0640
N010F0619
N011X-005926Y-001825F0640
N012G01X-008638Y+005900Z-000200F0640
N013X-006174Y-001901
N014F0620
N015X+000341Y-001109F0640
N016F0619
N017X+006174Y+001901F0640
N018F0620
N019X-000341Y+001109F0640
N020X-000688Y+002236
N021F0619
N022X-008411Y-002589F0640
N023F0619
N024X+001719Y-005582F0640
N025F0620
N026X+010646Y+003278F0640
N027F0620
N028X-001718Y+005582F0640
N029F0619
N030X-002236Y-000689F0640
N031F0620
N032X-000689Y+002236F0640
N033F0620
N034X-010647Y-003277F0640
N035F0619
N036X+003096Y-010055F0640
N037F0620
N038X+015122Y+004656F0640
N039F0000
N040G17
N041G02X-000050Y+000152I+004576J+001576F0640
N042G01X-003048Y+009902
N043F0619
N044X-004473Y-001378F0640
N045F0619
N046X-000688Y+002237F0640
N047F0619
N048X-012883Y-003967F0640
N049F0620
N050X+004472Y-014527F0640
N051F0619
N052X+020739Y+006385F0640
N053F0620
N054X-000107Y+000349F0640
N055G02X-001775Y+001688I+000614J+002423F0640
N056G01X-003737Y+012138
N057F0619
N058X-006709Y-002066F0640
N059F0618
N060G01X-027664Y+113725F0640
N061F0618
N062X-004473Y-001377F0640
N063F0620
N064X-000523Y+001698F0640
N065G02X-000303Y+001369I+008296J+002554F0617
N066G01X-004064Y-001252F0640
N067F0620
N068X+000933Y-003033F0640
N069F0619
N070X+003957Y+001218F0640
N071X+002237Y+000689
N072F0619
N073X-000523Y+001698F0640
N074G02X-000281Y+001865I+006059J+001865F0638
N075X+000166Y+001440I+006340F0638
N076X-000363Y+000363I+004295J+004664F0638
N077G01X-001840Y-000472F0640
N078X-007211Y-002220
N079F0620
N080X+002310Y-007506F0640
N081F0619
N082X+008430Y+002595F0640
N083F0620
N084X-000688Y+002237F0640
N085F0620
N086X+002236Y+000688F0640
N087F0619
N088X-000523Y+001698F0640
N089G02X-000177Y+001177I+003823J+001177F0640
N090X+000551Y+002026I+004000F0640
N091G01X-000142Y+000463
N092G02X-001942Y+001987I+001712J+003615F0624
N093G01X-003479Y-000892F0640
N094X-009501Y-002925
N095F0620
N096X+003687Y-011979F0640
N097F0619
N098X+012903Y+003972F0640
N099F0619
N100X-001377Y+004473F0640
N101F0620
N102Z+000050F0635
N103F0620
N104X-002009F0640
N105F0621
N106G01X-000393Y+007802F0640
N107X-000032Y+000105
N108G02X-001289Y+001608I+001133J+002229F0619
N109G01X-002658Y-000682F0640
N110X-009080Y-002795
N111F0620
N112X-000883Y+002868F0635
N113F0621
N114G01X+021996Y+008250F0640
N115F0638
N116X+000766Y+005378F0640
N117F0622
N118X-003096Y+000809F0640
N119F0621
N120X-003470Y-009815F0640
N121X-016815Y-004310
N122F0619
N123X+000289Y-000937F0640
N124F0620
N125X+009614Y+002959F0640
N126X+050208Y+012870
N127F0638
N128X+000610Y+002332F0640
N129G03X+000033Y+000253I+000967J+000253F0640
N130X-001000Y+001000I+001000F0640
N131X-000866Y-000500J+001000F0640
N132G01X-001640Y-002838
N133F0611
N134X+002819Y+001025F0635
N135F0615
N136G01X+000098Y-001662F0640
N137F0631
N138X+044169Y-014433F0640
N139F0618
N140X+000699Y+002675F0640
N141G03X+000033Y+000253I+000967J+000253F0640
N142X-001000Y+001000I+001000F0640
N143X-000786Y-000382J+001000F0640
N144G01X-001244Y-001579
N145F0611
N146X+002937Y+000612F0635
N147F0614
N148G01X-000601Y-002594F0640
N149F0620
N150X+035813Y-009983F0640
N151F0619
N152X+000687Y+002628F0640
N153G03X+000033Y+000253I+000967J+000253F0640
N154X-001000Y+001000I+001000F0640
N155X-000794Y-000391J+001000F0640
N156G01X-001073Y-001398
N157F0611
N158X+002929Y+000648F0635
N159F0613
N160G01X-000782Y-002741F0640
N161F0619
N162X+036003Y-009413F0640
N163F0620
N164X+000683Y+002612F0640
N165G03X+000033Y+000253I+000967J+000253F0640
N166X-001000Y+001000I+001000F0640
N167X-000796Y-000394J+001000F0640
N168G01X-001090Y-001433
N169F0611
N170X+002926Y+000661F0635
N171F0613
N172G01X-000755Y-002699F0640
N173F0619
N174X+036004Y-009414F0640
N175F0620
N176X+000683Y+002612F0640
N177G03X+000033Y+000253I+000967J+000253F0640
N178X-001000Y+001000I+001000F0640
N179X-000796Y-000394J+001000F0640
N180G01X-001090Y-001433
N181F0611
N182X+002926Y+000661F0635
N183F0611
N184G01X-001476Y-002511F0640
N185F0615
N186X+036724Y-009601F0640
N187F0620
N188X+000683Y+002612F0640
N189G03X+000033Y+000253I+000968J+000253F0640
N190X-001001Y+001001I+001001F0640
N191X-000795Y-000396J+001001F0640
N192G01X-001090Y-001432
N193F0611
N194X+002926Y+000661F0635
N195F0612
N196G01X-001122Y-002604F0640
N197F0617
N198X+036370Y-009509F0640
N199F0620
N200X+000683Y+002612F0640
N201G02X+000967Y+000747I+000967J+000253F0640
N202X+000990Y-000861J+001000F0640
N203G01X+000250Y-001783
N204F0611
N205X-002228Y+002009F0635
N206F0614
N207G01X-000861Y-002672F0640
N208F0618
N209X+038491Y-010064F0640
N210F0613
N211G03X-000514Y+000628I+000964J+000265F0640
N212G02X-000811Y+001132I+000674J+001340F0640
N213G01X-000258Y+001842
N214G03X-000990Y+000862I+000990J+000138F0640
N215X-000796Y-000395J+001000F0640
N216G01X-001090Y-001432
N217F0613
N218X+005952Y-000760F0640
N219F0613
N220G01X-001282Y-001603Z+000150F0640
N221X-000663Y-002533
N222F0619
N223X+011665Y-003050F0640
N224F0619
N225X+000031Y+000121F0640
N226X-000794Y+002893
N227F0611
N228G01X+001345Y-000789Z-000150F0640
N229X+032892Y-008600
N230F0613
N231X-001273Y+004138F0640
N232F0620
N233X+005734Y+001765F0640
N234F0610
N235G01X-003419Y-000789Z-000100F0640
N236F0618
N237X+020862Y-067773F0640
N238F0620
N239Z+000250F0640
N240F0620
N241G01X-002493Y-000396F0640
N242F0623
N243X-001790Y+005815F0640
N244F0628
N245X-049177Y-000001F0640
N246F0615
N247X+000368Y-001195F0640
N248G02X+000111Y-000735I+002389J+000735F0619
N249X-001765Y-002389I+002500F0619
N250G01X+000866Y-002812F0640
N251F0620
N252X+002294Y+000706F0640
N253F0619
N254X-001332Y+004325F0640
N255F0615
N256X+018206F0640
N257F0628
N258X+001549Y-005031F0640
N259F0619
N260X+002293Y+000706F0640
N261F0620
N262X-001331Y+004325F0640
N263F0615
N264X+010358F0640
N265F0628
N266X+001255Y-004075F0640
N267X+001632Y-000544
N268G03X+000706Y+000956I+000294J+000956F0640
N269X-000044Y+000294I+001000F0640
N270G01X-001037Y+003369
N271F0615
N272X+012555Y+000001F0640
N273F0628
N274X+001415Y-004598F0640
N275F0619
N276X+002868Y+000883F0640
N277F0620
N278Z+005150F0635
N279F0620
N280X-357464Y+051314F0712
N281F0000
N282M05
N283M01
N284M09
N285M30
$

